X:209
T: Osterruf von Sanct Thoman
N: A0563
O: Europa, Mitteleuropa, Deutschland
N: Corner, gr. Gsgb 1625 und 1631 No. 143.
R: Romanze, Ballade, Lied, religioeses Lied
M: 3/2
L: 1/2
K: C
C | E2F | G2E | F2G | C2
C | E2F | G2E | F2G | C2
F | EDC | A,2G, | DFD | C2
F | EDC | A,2G, | DFD | C2

@@@ Tune index: 522
